src/icons/svg/weixin.svg

<?xml version="1.0" encoding="UTF-8"?>
<svg width="60px" height="44px" viewBox="0 0 60 44" version="1.1" xmlns="http://www.w3.org/2000/svg" xmlns:xlink="http://www.w3.org/1999/xlink">
    <!-- Generator: Sketch 55.2 (78181) - https://sketchapp.com -->
    <title>微信icon@1x</title>
    <desc>Created with Sketch.</desc>
    <g id="页面1" stroke="none" stroke-width="1" fill="none" fill-rule="evenodd">
        <g id="M端-选择支付方式3" transform="translate(-157.000000, -182.000000)" fill="#41B035">
            <g id="支付宝备份" transform="translate(157.000000, 182.000000)">
                <path d="M25.0117505,26.9281196 C22.4978998,28.3019548 22.125016,26.1571261 22.125016,26.1571261 L18.9745508,18.9522962 C17.7620761,15.528586 20.0235779,17.4086857 20.0235779,17.4086857 C20.0235779,17.4086857 21.9639782,18.8472303 23.4367998,19.7236608 C24.9085961,20.6006943 26.586291,19.981339 26.586291,19.981339 L47.1836452,10.6641511 C43.3830815,6.02979424 37.1059401,3 29.9988977,3 C18.4009465,3 9,11.0634943 9,21.0110775 C9,26.7335274 12.1126283,31.82535 16.961809,35.125857 L16.087201,40.0524502 C16.087201,40.0524502 15.660638,41.4904381 17.1382277,40.82349 C18.1448036,40.3690394 20.7111032,38.7384075 22.2387833,37.7474482 C24.7195138,38.5930779 27.3491313,39.0250773 30.0001282,39.0225261 C41.597054,39.0225261 51,30.9590318 51,21.0114486 C51,18.130231 50.2075259,15.4091867 48.8042258,12.9935988 C42.2415127,16.8627606 26.9784009,25.8552414 25.0117505,26.9281196 Z" id="微信icon"></path>
            </g>
        </g>
    </g>
</svg>

<svg width="60" height="44" xmlns="http://www.w3.org/2000/svg"><path d="M25.012 26.928c-2.514 1.374-2.887-.77-2.887-.77l-3.15-7.206c-1.213-3.423 1.049-1.543 1.049-1.543s1.94 1.438 3.413 2.315c1.472.877 3.15.257 3.15.257l20.597-9.317C43.384 6.03 37.106 3 29.999 3 18.4 3 9 11.063 9 21.011c0 5.723 3.113 10.814 7.962 14.115l-.875 4.926s-.426 1.438 1.051.771c1.007-.454 3.573-2.085 5.1-3.076A24.029 24.029 0 0030 39.023c11.597 0 21-8.064 21-18.012 0-2.88-.792-5.602-2.196-8.017-6.562 3.869-21.826 12.861-23.792 13.934z" fill="#41B035" fill-rule="evenodd"/></svg>
